X:133
T:AIR XLIV. The Lass of Livingstone.
O:england
B:Joseph Mitchell: "The Highland Fair" (1731)
M:C|
L:1/8
K:DMin
(CD)| F3   G   A3   f |(cA)(cd) (cA)(GF)|A2 G2   G2 (FG)|(F/G/A)  G2 G2
(FD)|(CD)(FG) (Ac)(GA)|(FE)(FG) (AB)(cA)|d2 D2  (DF)(CD)| F2     (ED)D2||\
c2 | f3   g  (fg)(ag)|(fc)(df) (cA)(GF)|A2 G2   G2 (FG)|(FG/A/)  G2 G2
zc | f3   g  (fg)(ag)|(fc)(df) (cA)(GA)|F2(ED) (DF)(CD)| F2     (ED)D2|]


